Numix/256x256/categories/applications-geography.svg

<?xml version="1.0" encoding="UTF-8" standalone="no"?>
<svg
   xmlns:dc="http://purl.org/dc/elements/1.1/"
   xmlns:cc="http://creativecommons.org/ns#"
   xmlns:rdf="http://www.w3.org/1999/02/22-rdf-syntax-ns#"
   xmlns:svg="http://www.w3.org/2000/svg"
   xmlns="http://www.w3.org/2000/svg"
   xmlns:sodipodi="http://sodipodi.sourceforge.net/DTD/sodipodi-0.dtd"
   xmlns:inkscape="http://www.inkscape.org/namespaces/inkscape"
   width="256"
   height="256"
   viewBox="0 0 256 256"
   id="svg2"
   version="1.1"
   inkscape:version="0.91 r"
   sodipodi:docname="applications-geography.svg">
  <metadata
     id="metadata22">
    <rdf:RDF>
      <cc:Work
         rdf:about="">
        <dc:format>image/svg+xml</dc:format>
        <dc:type
           rdf:resource="http://purl.org/dc/dcmitype/StillImage" />
      </cc:Work>
    </rdf:RDF>
  </metadata>
  <sodipodi:namedview
     pagecolor="#ffffff"
     bordercolor="#666666"
     borderopacity="1"
     objecttolerance="10"
     gridtolerance="10"
     guidetolerance="10"
     inkscape:pageopacity="0"
     inkscape:pageshadow="2"
     inkscape:window-width="1920"
     inkscape:window-height="1056"
     id="namedview20"
     showgrid="false"
     inkscape:zoom="0.921875"
     inkscape:cx="128"
     inkscape:cy="128"
     inkscape:window-x="0"
     inkscape:window-y="24"
     inkscape:window-maximized="1"
     inkscape:current-layer="svg2" />
  <defs
     id="defs4">
    <clipPath
       id="clip1">
      <path
         d="M 36 37 L 217 37 L 217 217 L 36 217 Z "
         id="path7" />
    </clipPath>
    <clipPath
       id="clip2">
      <path
         d="M 126.667969 216.09375 C 176.328125 216.09375 216.640625 175.625 216.640625 125.988281 C 216.640625 76.667969 176.328125 36.199219 126.667969 36.199219 C 77.34375 36.199219 36.691406 76.667969 36.691406 125.988281 C 36.691406 175.625 77.34375 216.09375 126.667969 216.09375 Z "
         id="path10" />
    </clipPath>
  </defs>
  <path
     style="fill:#78b2a3"
     d="M 127.97537,32 C 102.51027,32 78.458642,42.006909 60.269289,60.174757 42.057197,78.346395 32,102.37814 32,127.85027 32,180.86415 75.048139,224 127.97537,224 180.92534,224 224,180.86415 224,127.85027 224,75.010759 180.92534,32 127.97537,32 Z m 0,3.942115 c 50.75209,0 92.05708,41.240598 92.05708,91.908155 0,50.84193 -41.30499,92.20761 -92.05708,92.20761 -50.729351,0 -92.007816,-41.36568 -92.007816,-92.20761 0,-24.41079 9.6252,-47.434265 27.083191,-64.870546 C 80.504944,45.569975 103.57132,35.942115 127.97537,35.942115 Z"
     id="path12"
     inkscape:connector-curvature="0" />
  <g
     style="clip-rule:nonzero"
     id="g14"
     clip-path="url(#clip1)"
     transform="matrix(0.97009888,0,0,0.97036699,5.1214408,5.0874779)">
    <g
       id="g16"
       clip-path="url(#clip2)">
      <path
         style="fill:#78b2a3"
         d="m 96.171875,44.453125 c -0.46875,0 -0.964844,0.183594 -1.457031,0.46875 1.171875,-0.363281 1.742187,-0.46875 1.457031,-0.46875 m 29.558595,5.753906 0.28516,-4.320312 -4.5586,0.285156 0.60156,4.035156 3.67188,0 M 74.21875,124.94922 c -0.910156,-0.85938 -0.3125,-4.60938 -0.3125,-4.60938 0,0 -13.699219,-7.21484 -28.644531,-11.5625 -1.824219,-0.52343 -0.886719,-4.32421 0.910156,-5.75781 l -0.597656,-4.035155 c -0.3125,-2.03125 3.046875,-11.847656 6.40625,-12.707031 3.359375,-0.859375 -0.3125,5.78125 -0.3125,5.78125 L 48.332031,94.0625 c 0,0 3.960938,4.636719 4.871094,4.636719 0.910156,0 2.449219,-2.320313 2.449219,-2.320313 l -4.273438,-2.890625 3.960938,-1.71875 0.257812,-1.535156 0.652344,-0.207031 6.5625,-9.921875 c 4.53125,-1.875 10.105469,-4.167969 10.808594,-4.507813 1.222656,-0.570312 9.765625,-5.46875 11.273437,-6.613281 1.539063,-1.171875 4.871094,-0.859375 6.09375,-0.859375 1.226563,0 3.046875,-0.597656 3.359375,-3.777344 0.289063,-3.175781 1.511719,-3.75 2.421875,-2.863281 0.9375,0.832031 -0.910156,2.292969 1.226563,2.863281 2.132816,0.574219 3.957036,2.03125 5.492186,0.574219 1.1211,-1.042969 -0.39062,-2.238281 -1.3789,-3.152344 l 16.92578,0 1.82422,-5.207031 -3.95704,-0.574219 -14.63671,-1.457031 0,-1.71875 -1.17188,0.207031 c 1.58984,-8.722656 10.98828,-7.265625 3.90625,-12.316406 -0.41797,-0.3125 -6.613281,9.765625 -8.203125,9.558594 -2.839844,-0.367188 -6.535156,-0.390625 -7.316406,0.519531 -1.042969,1.25 2.316406,-4.21875 5.234375,-5.859375 C 91.25,45.9375 85.027344,42.785156 73.828125,50.703125 70.027344,53.386719 60.519531,64.246094 56.589844,68.410156 40.050781,87.941406 38.722656,104.63672 38.722656,105.36328 c 0,1.46094 3.515625,2.26563 3.804688,4.01172 0.3125,1.71875 -5.78125,7.5 -5.78125,10.36328 0,1.32813 -3.046875,15.73047 3.644531,33.75 5.9375,17.10938 17.449219,32.1875 18.933594,33.125 l 4.21875,-2.23828 c 0,0 -7.007813,-12.39453 -7.292969,-13.56641 -0.3125,-1.14843 7.917969,-17.89062 11.875,-17.29297 3.957031,0.54688 3.046875,1.71875 5.496094,0.28516 2.421875,-1.42969 3.957031,-13.28125 6.691406,-14.42578 2.761719,-1.17188 5.78125,-2.60547 5.496094,-5.49609 -0.3125,-2.89063 -10.679688,-8.07032 -11.589844,-8.92969 m 66.14453,-84.820314 -8.22656,-2.890625 1.50781,4.609375 6.71875,-1.71875 M 109.58203,50.78125 c 0.91406,0 19.19531,-12.109375 17.3711,-12.394531 -1.82422,-0.289063 -2.13672,0 -7.03125,-0.574219 -4.8711,-0.574219 -10.05079,6.925781 -11.27735,8.074219 -1.19531,1.171875 -0.80469,4.894531 0.9375,4.894531 m 83.88281,87.00391 2.36719,-3.04688 -2.36719,-0.83203 -1.74609,2.21484 -2.08203,3.04688 1.76953,0.83203 2.05859,-2.21484 m 10.33594,10.02734 -0.59766,-4.45313 -3.82812,0 -0.28516,3.33204 -3.54297,-0.54688 -0.88671,-3.61719 -1.76954,-1.12109 -2.08203,2.5 -2.05859,-0.54688 -0.59766,1.92579 2.36719,0.57421 0,18.07422 8.35938,2.00391 c -0.20704,0.33984 -0.33594,0.625 -0.39063,0.75391 -0.59766,1.95312 2.34375,2.8125 4.42969,1.95312 0.7539,-0.28516 5.57031,-2.16016 7.08203,-5.78125 2.13672,-5.05078 3.51562,-12.34375 3.87891,-14.6875 l -0.9375,-2.03125 -5.91016,2.21484 -3.25391,-0.54687 0.0234,0 M 200.83203,73.800781 C 187.34375,53.359375 154.92187,39.972656 154.92187,39.972656 l -8.33203,4.375 -1.19922,-1.925781 -2.9414,-1.121094 0,2.5 2.65625,2.242188 -1.77344,0.832031 -6.76953,0.546875 -15.33984,8.332031 1.46093,6.695313 -1.77343,0.546875 -0.85938,1.378906 5,7.5 0.28906,2.527344 -4.11718,0.832031 0,5 -2.36719,0.546875 0.3125,3.90625 -20.078126,13.90625 0.597656,7.76172 C 101.17188,108.30859 112.65625,120 112.65625,120 c 0,0 13.28125,0.54688 16.22266,-1.12109 2.96875,-1.66407 0.88671,1.66797 1.77343,2.5 0.88282,0.83593 1.19532,6.66796 2.05469,7.24218 0.91406,0.54688 0,3.87891 1.19922,5 1.17187,1.11719 1.17187,14.45313 1.17187,14.45313 0,0 7.08204,11.95312 7.08204,15.02344 0,3.04687 -0.3125,2.76171 5.3125,2.5 5.60156,-0.28516 6.77343,-2.5 7.96875,-3.33204 1.17187,-0.83203 1.17187,-2.78515 2.34375,-4.45312 1.19921,-1.66797 3.25781,-8.04688 5.91406,-10.28516 2.65625,-2.24218 9.73828,-3.90625 10.3125,-7.78906 0.59765,-3.90625 3.2539,-6.95312 3.2539,-6.95312 L 190,119.29688 l -0.33984,1.82421 -0.3125,6.95313 3.85546,-1.40625 -0.3125,-7.5 -1.35546,-1.46094 0.18359,-0.20703 c 0,0 -0.88672,-1.66797 -2.05859,-1.66797 -1.17188,0 -8.25391,1.66797 -9.45313,1.38281 -1.17187,-0.28906 -6.17187,-13.62109 -7.05469,-14.16796 -0.91406,-0.57422 -6.51172,-9.738286 -6.51172,-9.738286 0,0 12.9961,15.570316 15.05079,21.691406 1.19921,3.54297 5.70312,0.23438 9.375,-3.48828 l 0.96484,2.36719 2.34375,-0.54688 -0.28516,-2.78515 2.65625,0 0,4.16796 -0.88672,2.23829 -0.3125,3.59375 2.3711,2.23828 1.17187,-1.95313 3.82813,-3.61719 4.42578,-2.21484 1.17187,2.21484 0.59766,3.07032 -1.17187,3.33593 -2.36719,1.95313 -1.17188,5 0,2.5 -2.65625,-1.66797 -0.28906,-5.28516 -3.85156,0.28516 -1.7461,4.71484 2.65625,3.90625 6.17188,0.83203 5.02734,-4.73828 0.57032,-9.14062 2.24218,-2.96875 c 1.45703,3.75 2.5,7.65625 2.5,11.30078 0,3.98437 3.14844,-2.03125 1.61328,-14.19141 0,-0.0273 -2.44921,-28.93359 -15.80859,-42.320309 z m -58.98437,11.980469 -15.91016,-0.546875 6.76953,-5.574219 3.54297,0 5.59766,3.90625 0,2.214844 m 19.48046,-1.925781 0,2.5 -6.76953,0 0.57032,1.664062 -4.11329,0.546875 -0.3125,1.382813 -2.9414,-0.546875 -5.3125,-1.09375 0.88281,-1.40625 0.88672,-1.667969 2.96875,-3.074219 1.17187,2.242188 4.42579,-0.289063 2.34375,-2.5 9.16796,1.667969 -2.96875,0.574219 m 0.57422,-3.621094 -3.51562,0.546875 -0.60156,-2.5 4.42968,-0.546875 0.59766,-2.527344 3.23047,3.359375 -4.14063,1.667969 m 17.13282,86.457035 -2.08204,1.69531 0.28516,4.16406 2.65625,0 0,-3.61719 2.37109,-3.07422 0,-6.3789 -1.48437,-0.28906 -1.74609,7.5 m -19.76563,-8.33204 c 0,0 -2.08203,0.54688 0.28906,1.40625 2.34375,0.83204 11.79688,-13.62109 11.79688,-13.62109 l -7.96875,5 -4.11719,7.21484 m -16.06641,53.3086 -1.76953,-1.69531 -3.51562,-0.54688 -0.60156,1.69531 -4.71094,-0.57422 -0.3125,-2.23828 -3.54297,0 -3.82812,2.23828 -6.76954,0 -0.60156,-1.66796 -10.88281,-1.14454 -1.77344,1.69141 -4.42578,-1.11719 -0.597656,-3.90625 -2.058594,-0.3125 -2.371094,4.21875 L 87.5,208.01953 c 1.433594,0.67969 13.30859,7.76172 31.53516,9.24609 24.16796,1.95313 35.67968,-3.90625 35.67968,-3.90625 L 153.82812,212.5 Z"
         id="path18"
         inkscape:connector-curvature="0" />
    </g>
  </g>
</svg>

<svg width="256" xmlns="http://www.w3.org/2000/svg" height="256" viewBox="0 0 256 256" xmlns:xlink="http://www.w3.org/1999/xlink">
<defs>
<clipPath id="clip1">
<path d="M 36 37 L 217 37 L 217 217 L 36 217 Z "/>
</clipPath>
<clipPath id="clip2">
<path d="M 126.667969 216.09375 C 176.328125 216.09375 216.640625 175.625 216.640625 125.988281 C 216.640625 76.667969 176.328125 36.199219 126.667969 36.199219 C 77.34375 36.199219 36.691406 76.667969 36.691406 125.988281 C 36.691406 175.625 77.34375 216.09375 126.667969 216.09375 Z "/>
</clipPath>
</defs>
<path style="fill:#78b2a3" d="M 126.640625 27.734375 C 100.390625 27.734375 75.597656 38.046875 56.847656 56.769531 C 38.074219 75.496094 27.707031 100.261719 27.707031 126.511719 C 27.707031 181.144531 72.082031 225.597656 126.640625 225.597656 C 181.222656 225.597656 225.625 181.144531 225.625 126.511719 C 225.625 72.058594 181.222656 27.734375 126.640625 27.734375 Z M 126.640625 31.796875 C 178.957031 31.796875 221.535156 74.296875 221.535156 126.511719 C 221.535156 178.90625 178.957031 221.535156 126.640625 221.535156 C 74.347656 221.535156 31.796875 178.90625 31.796875 126.511719 C 31.796875 101.355469 41.71875 77.628906 59.714844 59.660156 C 77.707031 41.71875 101.484375 31.796875 126.640625 31.796875 Z "/>
<g style="clip-rule:nonzero;clip-path:url(#clip1)">
<g style="clip-path:url(#clip2)">
<path style="fill:#78b2a3" d="M 96.171875 44.453125 C 95.703125 44.453125 95.207031 44.636719 94.714844 44.921875 C 95.886719 44.558594 96.457031 44.453125 96.171875 44.453125 M 125.730469 50.207031 L 126.015625 45.886719 L 121.457031 46.171875 L 122.058594 50.207031 L 125.730469 50.207031 M 74.21875 124.949219 C 73.308594 124.089844 73.90625 120.339844 73.90625 120.339844 C 73.90625 120.339844 60.207031 113.125 45.261719 108.777344 C 43.4375 108.253906 44.375 104.453125 46.171875 103.019531 L 45.574219 98.984375 C 45.261719 96.953125 48.621094 87.136719 51.980469 86.277344 C 55.339844 85.417969 51.667969 92.058594 51.667969 92.058594 L 48.332031 94.0625 C 48.332031 94.0625 52.292969 98.699219 53.203125 98.699219 C 54.113281 98.699219 55.652344 96.378906 55.652344 96.378906 L 51.378906 93.488281 L 55.339844 91.769531 L 55.597656 90.234375 L 56.25 90.027344 L 62.8125 80.105469 C 67.34375 78.230469 72.917969 75.9375 73.621094 75.597656 C 74.84375 75.027344 83.386719 70.128906 84.894531 68.984375 C 86.433594 67.8125 89.765625 68.125 90.988281 68.125 C 92.214844 68.125 94.035156 67.527344 94.347656 64.347656 C 94.636719 61.171875 95.859375 60.597656 96.769531 61.484375 C 97.707031 62.316406 95.859375 63.777344 97.996094 64.347656 C 100.128906 64.921875 101.953125 66.378906 103.488281 64.921875 C 104.609375 63.878906 103.097656 62.683594 102.109375 61.769531 L 119.035156 61.769531 L 120.859375 56.5625 L 116.902344 55.988281 L 102.265625 54.53125 L 102.265625 52.8125 L 101.09375 53.019531 C 102.683594 44.296875 112.082031 45.753906 105 40.703125 C 104.582031 40.390625 98.386719 50.46875 96.796875 50.261719 C 93.957031 49.894531 90.261719 49.871094 89.480469 50.78125 C 88.4375 52.03125 91.796875 46.5625 94.714844 44.921875 C 91.25 45.9375 85.027344 42.785156 73.828125 50.703125 C 70.027344 53.386719 60.519531 64.246094 56.589844 68.410156 C 40.050781 87.941406 38.722656 104.636719 38.722656 105.363281 C 38.722656 106.824219 42.238281 107.628906 42.527344 109.375 C 42.839844 111.09375 36.746094 116.875 36.746094 119.738281 C 36.746094 121.066406 33.699219 135.46875 40.390625 153.488281 C 46.328125 170.597656 57.839844 185.675781 59.324219 186.613281 L 63.542969 184.375 C 63.542969 184.375 56.535156 171.980469 56.25 170.808594 C 55.9375 169.660156 64.167969 152.917969 68.125 153.515625 C 72.082031 154.0625 71.171875 155.234375 73.621094 153.800781 C 76.042969 152.371094 77.578125 140.519531 80.3125 139.375 C 83.074219 138.203125 86.09375 136.769531 85.808594 133.878906 C 85.496094 130.988281 75.128906 125.808594 74.21875 124.949219 M 140.363281 40.128906 L 132.136719 37.238281 L 133.644531 41.847656 L 140.363281 40.128906 M 109.582031 50.78125 C 110.496094 50.78125 128.777344 38.671875 126.953125 38.386719 C 125.128906 38.097656 124.816406 38.386719 119.921875 37.8125 C 115.050781 37.238281 109.871094 44.738281 108.644531 45.886719 C 107.449219 47.058594 107.839844 50.78125 109.582031 50.78125 M 193.464844 137.785156 L 195.832031 134.738281 L 193.464844 133.90625 L 191.71875 136.121094 L 189.636719 139.167969 L 191.40625 140 L 193.464844 137.785156 M 203.800781 147.8125 L 203.203125 143.359375 L 199.375 143.359375 L 199.089844 146.691406 L 195.546875 146.144531 L 194.660156 142.527344 L 192.890625 141.40625 L 190.808594 143.90625 L 188.75 143.359375 L 188.152344 145.285156 L 190.519531 145.859375 L 190.519531 163.933594 L 198.878906 165.9375 C 198.671875 166.277344 198.542969 166.5625 198.488281 166.691406 C 197.890625 168.644531 200.832031 169.503906 202.917969 168.644531 C 203.671875 168.359375 208.488281 166.484375 210 162.863281 C 212.136719 157.8125 213.515625 150.519531 213.878906 148.175781 L 212.941406 146.144531 L 207.03125 148.359375 L 203.777344 147.8125 L 203.800781 147.8125 M 200.832031 73.800781 C 187.34375 53.359375 154.921875 39.972656 154.921875 39.972656 L 146.589844 44.347656 L 145.390625 42.421875 L 142.449219 41.300781 L 142.449219 43.800781 L 145.105469 46.042969 L 143.332031 46.875 L 136.5625 47.421875 L 121.222656 55.753906 L 122.683594 62.449219 L 120.910156 62.996094 L 120.050781 64.375 L 125.050781 71.875 L 125.339844 74.402344 L 121.222656 75.234375 L 121.222656 80.234375 L 118.855469 80.78125 L 119.167969 84.6875 L 99.089844 98.59375 L 99.6875 106.355469 C 101.171875 108.308594 112.65625 120 112.65625 120 C 112.65625 120 125.9375 120.546875 128.878906 118.878906 C 131.847656 117.214844 129.765625 120.546875 130.652344 121.378906 C 131.535156 122.214844 131.847656 128.046875 132.707031 128.621094 C 133.621094 129.167969 132.707031 132.5 133.90625 133.621094 C 135.078125 134.738281 135.078125 148.074219 135.078125 148.074219 C 135.078125 148.074219 142.160156 160.027344 142.160156 163.097656 C 142.160156 166.144531 141.847656 165.859375 147.472656 165.597656 C 153.074219 165.3125 154.246094 163.097656 155.441406 162.265625 C 156.613281 161.433594 156.613281 159.480469 157.785156 157.8125 C 158.984375 156.144531 161.042969 149.765625 163.699219 147.527344 C 166.355469 145.285156 173.4375 143.621094 174.011719 139.738281 C 174.609375 135.832031 177.265625 132.785156 177.265625 132.785156 L 190 119.296875 L 189.660156 121.121094 L 189.347656 128.074219 L 193.203125 126.667969 L 192.890625 119.167969 L 191.535156 117.707031 L 191.71875 117.5 C 191.71875 117.5 190.832031 115.832031 189.660156 115.832031 C 188.488281 115.832031 181.40625 117.5 180.207031 117.214844 C 179.035156 116.925781 174.035156 103.59375 173.152344 103.046875 C 172.238281 102.472656 166.640625 93.308594 166.640625 93.308594 C 166.640625 93.308594 179.636719 108.878906 181.691406 115 C 182.890625 118.542969 187.394531 115.234375 191.066406 111.511719 L 192.03125 113.878906 L 194.375 113.332031 L 194.089844 110.546875 L 196.746094 110.546875 L 196.746094 114.714844 L 195.859375 116.953125 L 195.546875 120.546875 L 197.917969 122.785156 L 199.089844 120.832031 L 202.917969 117.214844 L 207.34375 115 L 208.515625 117.214844 L 209.113281 120.285156 L 207.941406 123.621094 L 205.574219 125.574219 L 204.402344 130.574219 L 204.402344 133.074219 L 201.746094 131.40625 L 201.457031 126.121094 L 197.605469 126.40625 L 195.859375 131.121094 L 198.515625 135.027344 L 204.6875 135.859375 L 209.714844 131.121094 L 210.285156 121.980469 L 212.527344 119.011719 C 213.984375 122.761719 215.027344 126.667969 215.027344 130.3125 C 215.027344 134.296875 218.175781 128.28125 216.640625 116.121094 C 216.640625 116.09375 214.191406 87.1875 200.832031 73.800781 Z M 141.847656 85.78125 L 125.9375 85.234375 L 132.707031 79.660156 L 136.25 79.660156 L 141.847656 83.566406 L 141.847656 85.78125 M 161.328125 83.855469 L 161.328125 86.355469 L 154.558594 86.355469 L 155.128906 88.019531 L 151.015625 88.566406 L 150.703125 89.949219 L 147.761719 89.402344 L 142.449219 88.308594 L 143.332031 86.902344 L 144.21875 85.234375 L 147.1875 82.160156 L 148.359375 84.402344 L 152.785156 84.113281 L 155.128906 81.613281 L 164.296875 83.28125 L 161.328125 83.855469 M 161.902344 80.234375 L 158.386719 80.78125 L 157.785156 78.28125 L 162.214844 77.734375 L 162.8125 75.207031 L 166.042969 78.566406 L 161.902344 80.234375 M 179.035156 166.691406 L 176.953125 168.386719 L 177.238281 172.550781 L 179.894531 172.550781 L 179.894531 168.933594 L 182.265625 165.859375 L 182.265625 159.480469 L 180.78125 159.191406 L 179.035156 166.691406 M 159.269531 158.359375 C 159.269531 158.359375 157.1875 158.90625 159.558594 159.765625 C 161.902344 160.597656 171.355469 146.144531 171.355469 146.144531 L 163.386719 151.144531 L 159.269531 158.359375 M 143.203125 211.667969 L 141.433594 209.972656 L 137.917969 209.425781 L 137.316406 211.121094 L 132.605469 210.546875 L 132.292969 208.308594 L 128.75 208.308594 L 124.921875 210.546875 L 118.152344 210.546875 L 117.550781 208.878906 L 106.667969 207.734375 L 104.894531 209.425781 L 100.46875 208.308594 L 99.871094 204.402344 L 97.8125 204.089844 L 95.441406 208.308594 L 87.5 208.019531 C 88.933594 208.699219 100.808594 215.78125 119.035156 217.265625 C 143.203125 219.21875 154.714844 213.359375 154.714844 213.359375 L 153.828125 212.5 Z "/>
</g>
</g>
</svg>
